To walk :seq :depth :limit :len
  if :depth > :limit [ stop ]
  if :seq = 'a' [
    right 72
    forward  :len
    walk 'b' :depth + 1 :limit :len * 1.618034
  ]
  if :seq = 'b' [
    left 36
    forward :len
    walk 'a' :depth + 1 :limit :len * 1.618034
    walk 'b' :depth + 1 :limit :len * 1.618034
  ]
end
clearscreen
walk 'a' 1 11 0.2
